icons/glyphs/glyph-info.svg

<?xml version="1.0" encoding="UTF-8" standalone="no"?><svg height="22" viewBox="0 0 5.8208332 5.8208335" width="22" xmlns="http://www.w3.org/2000/svg"><sodipodi:namedview/><metadata><rdf:RDF><cc:Work><dc:format>image/svg+xml</dc:format><dc:type/><dc:title/><cc:license/><dc:creator><cc:Agent><dc:title>PixelPimps &amp; CodePoets</dc:title></cc:Agent></dc:creator></cc:Work><cc:License><cc:permits/><cc:permits/><cc:requires/><cc:requires/><cc:permits/></cc:License></rdf:RDF></metadata><path d="m11 0a11 11 0 0 0 -11 11 11 11 0 0 0 11 11 11 11 0 0 0 11-11 11 11 0 0 0 -11-11zm1.394531 2.515625c.500803 0 .920512.1722003 1.259766.5195312.347331.347331.521484.7689935.521484 1.2617188 0 .4927254-.174153.9124346-.521484 1.2597656-.347331.3473308-.76704.5195313-1.259766.5195313-.484648 0-.900716-.1722005-1.248047-.5195313-.34733-.347331-.521484-.7670402-.521484-1.2597656 0-.4927253.168559-.9143878.507812-1.2617188.347332-.3473309.768994-.5195312 1.261719-.5195312zm.023438 5.5722656h.726562l-2.482422 8.6152344c-.137317.492725-.207031.815278-.207031.96875 0 .088852.036677.17313.109375.253906.072698.072698.149695.109375.230469.109375.137318 0 .274793-.060479.412109-.18164.363486-.298867.799714-.839533 1.308594-1.623047l.412109.242187c-1.219697 2.124371-2.517455 3.1875-3.8906246 3.1875-.5250351 0-.9447445-.146711-1.2597656-.4375-.3069438-.298866-.4609376-.674615-.4609376-1.126953 0-.298866.0697135-.678256.2070313-1.138672l1.6835937-5.791015c.1615497-.557346.2421875-.977055.2421876-1.259766 0-.1777033-.0769973-.3353385-.2304688-.4726562-.1534715-.1373178-.3623495-.2070313-.6289062-.2070313-.1211616 0-.2678731.0055837-.4375.0136719l.1582031-.4863282z" fill="#d0d0d0" stroke-linecap="round" stroke-width=".4" transform="scale(.26458333)"/></svg>

<?xml version="1.0" encoding="UTF-8" standalone="no"?>
<!-- Created with Inkscape (http://www.inkscape.org/) -->

<svg
   xmlns:dc="http://purl.org/dc/elements/1.1/"
   xmlns:cc="http://creativecommons.org/ns#"
   xmlns:rdf="http://www.w3.org/1999/02/22-rdf-syntax-ns#"
   xmlns:svg="http://www.w3.org/2000/svg"
   xmlns="http://www.w3.org/2000/svg"
   xmlns:sodipodi="http://sodipodi.sourceforge.net/DTD/sodipodi-0.dtd"
   xmlns:inkscape="http://www.inkscape.org/namespaces/inkscape"
   width="22"
   height="22"
   viewBox="0 0 5.8208332 5.8208335"
   version="1.1"
   id="svg8"
   inkscape:version="0.92+devel 15739 custom"
   sodipodi:docname="glyph-info.svg">
  <defs
     id="defs2" />
  <sodipodi:namedview
     id="base"
     pagecolor="#002466"
     bordercolor="#ffffff"
     borderopacity="0.32156863"
     inkscape:pageopacity="1"
     inkscape:pageshadow="2"
     inkscape:zoom="19.090909"
     inkscape:cx="11"
     inkscape:cy="11"
     inkscape:document-units="px"
     inkscape:current-layer="svg8"
     inkscape:document-rotation="0"
     showgrid="false"
     units="px"
     inkscape:pagecheckerboard="false"
     borderlayer="true"
     inkscape:showpageshadow="false"
     inkscape:window-width="1920"
     inkscape:window-height="1051"
     inkscape:window-x="0"
     inkscape:window-y="0"
     inkscape:window-maximized="1"
     inkscape:snap-page="true" />
  <metadata
     id="metadata5">
    <rdf:RDF>
      <cc:Work
         rdf:about="">
        <dc:format>image/svg+xml</dc:format>
        <dc:type
           rdf:resource="http://purl.org/dc/dcmitype/StillImage" />
        <dc:title></dc:title>
        <cc:license
           rdf:resource="http://creativecommons.org/licenses/by/4.0/" />
        <dc:creator>
          <cc:Agent>
            <dc:title>PixelPimps &amp; CodePoets</dc:title>
          </cc:Agent>
        </dc:creator>
      </cc:Work>
      <cc:License
         rdf:about="http://creativecommons.org/licenses/by/4.0/">
        <cc:permits
           rdf:resource="http://creativecommons.org/ns#Reproduction" />
        <cc:permits
           rdf:resource="http://creativecommons.org/ns#Distribution" />
        <cc:requires
           rdf:resource="http://creativecommons.org/ns#Notice" />
        <cc:requires
           rdf:resource="http://creativecommons.org/ns#Attribution" />
        <cc:permits
           rdf:resource="http://creativecommons.org/ns#DerivativeWorks" />
      </cc:License>
    </rdf:RDF>
  </metadata>
  <path
     style="fill:#d0d0d0;stroke-width:0.40000001;stroke-linecap:round"
     d="M 11 0 A 11 11 0 0 0 0 11 A 11 11 0 0 0 11 22 A 11 11 0 0 0 22 11 A 11 11 0 0 0 11 0 z M 12.394531 2.515625 C 12.895334 2.515625 13.315043 2.6878253 13.654297 3.0351562 C 14.001628 3.3824872 14.175781 3.8041497 14.175781 4.296875 C 14.175781 4.7896004 14.001628 5.2093096 13.654297 5.5566406 C 13.306966 5.9039714 12.887257 6.0761719 12.394531 6.0761719 C 11.909883 6.0761719 11.493815 5.9039714 11.146484 5.5566406 C 10.799154 5.2093096 10.625 4.7896004 10.625 4.296875 C 10.625 3.8041497 10.793559 3.3824872 11.132812 3.0351562 C 11.480144 2.6878253 11.901806 2.515625 12.394531 2.515625 z M 12.417969 8.0878906 L 13.144531 8.0878906 L 10.662109 16.703125 C 10.524792 17.19585 10.455078 17.518403 10.455078 17.671875 C 10.455078 17.760727 10.491755 17.845005 10.564453 17.925781 C 10.637151 17.998479 10.714148 18.035156 10.794922 18.035156 C 10.93224 18.035156 11.069715 17.974677 11.207031 17.853516 C 11.570517 17.554649 12.006745 17.013983 12.515625 16.230469 L 12.927734 16.472656 C 11.708037 18.597027 10.410279 19.660156 9.0371094 19.660156 C 8.5120743 19.660156 8.0923649 19.513445 7.7773438 19.222656 C 7.4704 18.92379 7.3164062 18.548041 7.3164062 18.095703 C 7.3164062 17.796837 7.3861197 17.417447 7.5234375 16.957031 L 9.2070312 11.166016 C 9.3685809 10.60867 9.4492187 10.188961 9.4492188 9.90625 C 9.4492188 9.7285467 9.3722215 9.5709115 9.21875 9.4335938 C 9.0652785 9.296276 8.8564005 9.2265625 8.5898438 9.2265625 C 8.4686822 9.2265625 8.3219707 9.2321462 8.1523438 9.2402344 L 8.3105469 8.7539062 L 12.417969 8.0878906 z "
     transform="scale(0.26458333)"
     id="path811"
     inkscape:label="#" />
</svg>
